icons/svg/board.svg

<svg width="24" height="24" viewBox="0 0 24 24" fill="none" xmlns="http://www.w3.org/2000/svg">
<path d="M17.75 4H6.25C4.317 4 2.75 5.567 2.75 7.5V16.5C2.75 18.433 4.317 20 6.25 20H17.75C19.683 20 21.25 18.433 21.25 16.5V7.5C21.25 5.567 19.683 4 17.75 4Z" stroke="currentColor" stroke-width="1.5" stroke-linecap="round" stroke-linejoin="round"/>
<path d="M17.0998 6.95007H6.9002C6.23745 6.95007 5.7002 7.48733 5.7002 8.15007V8.63342C5.7002 9.29616 6.23745 9.83342 6.90019 9.83342H17.0998C17.7625 9.83342 18.2998 9.29616 18.2998 8.63342V8.15007C18.2998 7.48733 17.7625 6.95007 17.0998 6.95007Z" fill="currentColor"/>
<path d="M17.0998 12.5892H14.1998C13.537 12.5892 12.9998 13.1265 12.9998 13.7892V15.85C12.9998 16.5127 13.537 17.05 14.1998 17.05H17.0998C17.7625 17.05 18.2998 16.5127 18.2998 15.85V13.7892C18.2998 13.1265 17.7625 12.5892 17.0998 12.5892Z" fill="currentColor"/>
<path d="M9.0002 12.5892H6.9002C6.23745 12.5892 5.7002 13.1265 5.7002 13.7892V15.85C5.7002 16.5127 6.23745 17.05 6.9002 17.05H9.0002C9.66294 17.05 10.2002 16.5127 10.2002 15.85V13.7892C10.2002 13.1265 9.66294 12.5892 9.0002 12.5892Z" fill="currentColor"/>
</svg>

<svg xmlns="http://www.w3.org/2000/svg" width="24" height="24" fill="none" viewBox="0 0 24 24"><path stroke="currentColor" stroke-linecap="round" stroke-linejoin="round" stroke-width="1.5" d="M17.75 4H6.25a3.5 3.5 0 0 0-3.5 3.5v9a3.5 3.5 0 0 0 3.5 3.5h11.5a3.5 3.5 0 0 0 3.5-3.5v-9a3.5 3.5 0 0 0-3.5-3.5"/><path fill="currentColor" d="M17.1 6.95H6.9a1.2 1.2 0 0 0-1.2 1.2v.483a1.2 1.2 0 0 0 1.2 1.2h10.2a1.2 1.2 0 0 0 1.2-1.2V8.15a1.2 1.2 0 0 0-1.2-1.2m0 5.64h-2.9a1.2 1.2 0 0 0-1.2 1.2v2.06a1.2 1.2 0 0 0 1.2 1.2h2.9a1.2 1.2 0 0 0 1.2-1.2v-2.06a1.2 1.2 0 0 0-1.2-1.2m-8.1 0H6.9a1.2 1.2 0 0 0-1.2 1.2v2.06a1.2 1.2 0 0 0 1.2 1.2H9a1.2 1.2 0 0 0 1.2-1.2v-2.06a1.2 1.2 0 0 0-1.2-1.2"/></svg>
